X:5978
T:Sheebeg and Sheemore
O:england
M:3/4
L:1/8
K:D Major
de|f2 fe d2|d3 e d2|B4 A2|F4 A2|BA Bc d2|e4 de|f4 e2|d4 f2|
B4 e2|A4 d2|F4 E2|D4 f2|B4 e2|A4 dc|d6|d4:|
de|f2 fe d2|ed ef a2|b4 a2|f4 ed|e2 e2 a2|f3 e d2|d4 B2|A4 BA|
F4 E2|D4 f2|B4 e2|A4 fa|ba gf ed|e4 dc|d6|d4:|
Simon Wascher
Drehleierspieler
Mariahilferstrasse 61/2/24
A-1060 Wien
Tel:+43/(0) 1.913 01 89
e-mail: simon.wascher@chello.at
URL: http://members.teleweb.at/simon.wascher/ (in German)
besides this collection, I made two books with traditional tunes especially collected to
fit for hurdy gurdy and/or bagpipes:
you find more information at the following URL:
http://members.teleweb.at/simon.wascher/homepage_abc.htm (in German)
this page is also the place where you find the tunes collection when surfing the net.
my abc collection in the net (under permanent construction):
Bourree a deux temps at http://members.chello.at/simon.wascher/simon_wascher_bourree_a_2.abc
Bourree a trois temps at http://members.chello.at/simon.wascher/simon_wascher_bourree_a_3.abc
Zwiefach at http://members.chello.at/simon.wascher/simon_wascher_zwiefach.abc
Breton tunes at http://members.chello.at/simon.wascher/simon_wascher_breton.abc
Steirer at http://members.chello.at/simon.wascher/simon_wascher_steirer.abc
Walzer at http://members.chello.at/simon.wascher/simon_wascher_walzer.abc
Schottisch at http://members.chello.at/simon.wascher/simon_wascher_schottisch.abc
Mazurka at http://members.chello.at/simon.wascher/simon_wascher_mazurka.abc
Polka at http://members.chello.at/simon.wascher/simon_wascher_polka.abc
6/8 Taenze at http://members.chello.at/simon.wascher/simon_wascher_6_8.abc
Landler at http://members.chello.at/simon.wascher/simon_wascher_landler.abc
Lieder at http://members.chello.at/simon.wascher/simon_wascher_lieder.abc


